packages/elements/bolt-icon/src/svgs/upload.svg

<svg enable-background="new 0 0 32 32" viewBox="0 0 32 32" xmlns="http://www.w3.org/2000/svg"><g clip-rule="evenodd" fill="#151619" fill-rule="evenodd" transform="translate(4 3)"><path d="m24.1 25.6h-24.3c-.9 0-1.7.8-1.7 1.7s.8 1.7 1.7 1.7h24.3c.9 0 1.7-.8 1.7-1.7s-.7-1.7-1.7-1.7"/><path d="m2.9 10.3h4.4v12.7h9.2v-12.7h4.6c.5 0 .9-.3 1.2-.7.1-.2.1-.3.1-.5 0-.3-.1-.5-.3-.7l-9.1-10.9c-.2-.3-.6-.5-1-.5s-.8.2-1 .5l-9.1 10.8c-.3.4-.4.9-.1 1.3.2.4.6.7 1.1.7"/></g></svg>

<?xml version="1.0" encoding="utf-8"?>
<!-- Generator: Adobe Illustrator 25.2.0, SVG Export Plug-In . SVG Version: 6.00 Build 0)  -->
<svg version="1.1" id="Layer_1" xmlns="http://www.w3.org/2000/svg" xmlns:xlink="http://www.w3.org/1999/xlink" x="0px" y="0px"
	 viewBox="0 0 32 32" style="enable-background:new 0 0 32 32;" xml:space="preserve">
<style type="text/css">
	.st0{fill-rule:evenodd;clip-rule:evenodd;fill:#151619;}
</style>
<g>
	<g transform="translate(4 3)">
		<path class="st0" d="M24.1,25.6H-0.2c-0.9,0-1.7,0.8-1.7,1.7c0,0.9,0.8,1.7,1.7,1.7h24.3c0.9,0,1.7-0.8,1.7-1.7
			C25.8,26.4,25.1,25.6,24.1,25.6"/>
		<path class="st0" d="M2.9,10.3h4.4v12.7h9.2V10.3h4.6c0.5,0,0.9-0.3,1.2-0.7c0.1-0.2,0.1-0.3,0.1-0.5c0-0.3-0.1-0.5-0.3-0.7
			L13-2.5C12.8-2.8,12.4-3,12-3s-0.8,0.2-1,0.5h0L1.9,8.3C1.6,8.7,1.5,9.2,1.8,9.6C2,10,2.4,10.3,2.9,10.3"/>
	</g>
</g>
</svg>
